X:1
T:Duke of Athole's Delight, The
M:C
L:1/8
R:Strathspey
N:"Slowish"
S:Gow - First Collection of Niel Gow's Reels (1784, revised 1801)
Z:AK/Fiddler's Companion
K:G
B|G>DGB {B}A2 GE|G>DGB G>DGB|c>AB>G {B}!trill!A2 GE|
G>DGB !trill!d>egd|e/f/g f/g/a {B}A2 GE|(G/A/).B/.c/ (d/c/).B/.A/ G2G,:|
|:d|g>dgb !trill!a2 ge|gdgb gdgb|gdgb !trill!a2 ge|
gdeg !trill!d>egd|e/f/g f/g/a {B}A2 GE|(G/A/).B/.c/ (d/c/).B/.A/ G2G,:|
|:B|G>D G/A/B/c/ {B}!trill!A>G EA|GDBD dDBD|(GB).g.B A>D F/G/A/F/|
GDEC DGB,G,|CAB,G A,A F/G/A/F/|(G/A/).B/.c/ (d/c/).B/.A/ G2G,:|
|:e/f/|g/f/e/d/ B>g a/g/f/e/ f>a|b/a/g/f/ gd ebgd|ebgd Aa f/g/a/f/|
(gb).d.B (ca).c.A|(Bg).B.G (Ad).F.D|(G/A/).B/.c/ (d/c/).B/.A/ G2D:|
|:B/c/|d/c/B/A/ G/A/B/G/ {B}A>G EB/c/|d/c/B/A/ G/A/B/c/ dG B/d/B/G/|c/e/c/A/ B/d/B/G/ AD F/G/A/F/|
GB/d/ FA/d/ EA/c/ DG/B/|(C/E/).A/.C/ (B,/D/).G/.B,/ A,G /G/A/F/|(G/A/).B/.c/ (d/c/).B/.A/ G2G,:|
|:e/f/|g/f/e/d/ B>g a/g/f/e/ f>a|b/a/g/f/ gd ebgd|ebgd Aa f/g/a/f/|
gb B/c/d/B/ ca A/B/c/A/|Bg G/A/B/G/ AdFD|(G/A/).B/.c/ (d/c/).B/.A/ G2G,:|
|:B/c/|d/c/B/A/ G/A/B/G/ A/B/A/G/ EA|G/D/E/F/ G/A/B/c/ dG B/d/B/G/|c/e/c/A/ B/d/B/G/ AD F/G/A/F/|
G/B/e/G/ F/A/d/F/ E/G/c/E/ D/G/B/D/|C/E/A/C/ B,/D/G/B,/ A,A F/G/A/F/(G/A/).B/.c/ (d/c/).B/.A/ G2G,:|
|:e/f/|g/f/e/d/ B/c/d/B/ A/a/e/g/ f/g/a/f/|g/d/B/d/ g/b/g/e/ f/a/f/d/ e/f/g/e/|d/B/g/B/ G/B/d/B/ A/a/e/g/ f/g/a/f/|
g/b/g/e/ f/a/f/d/ e/g/e/c/ d/g/d/B/|c/e/c/A/ B/d/B/G/ AD F/G/A/F/|(G/A/).B/.c/ (d/c/).B/.A/ G2G,:|
|:B/c/|dGd>B AdFD|GBAc dGBd|caBg ADFA|GDEC DGB,G,|
CAB,G A,A F/G/A/F/|(G/A/).B/.c/ (d/c/).B/.A/ G2G,:|
|:e/f/ gBgB Aa f/g/a/f/|gBgB a/g/f/e/ gB|dBgB Aa f/g/a/f/|
(gb).d.B (ca).c.A|(Bg).B.G (Ad).F.D|(G/A/).B/.c/ (d/c/).B/.A/ G2G,:||

